symbols/web/photo_camera_front/materialsymbolsrounded/photo_camera_front_wght200grad200_20px.svg

<svg xmlns="http://www.w3.org/2000/svg" height="20" width="20"><path d="M7.042 13.812h5.916v-.27q0-.771-.791-1.219-.792-.448-2.167-.448-1.375 0-2.167.448-.791.448-.791 1.219ZM10 10.688q.604 0 1.01-.396.407-.396.407-1t-.407-1q-.406-.396-1.01-.396-.583 0-.979.396t-.396 1q0 .604.396 1t.979.396Zm-6.188 6.666q-.833 0-1.406-.573t-.573-1.406V6.521q0-.833.573-1.406t1.406-.573h2.271l1.105-1.209q.291-.291.666-.468.375-.177.792-.177h2.729q.417 0 .781.177.365.177.656.468l1.126 1.209h2.25q.833 0 1.406.573t.573 1.406v8.854q0 .833-.573 1.406t-1.406.573Zm12.376-1.458q.229 0 .374-.146.146-.146.146-.375V6.521q0-.229-.146-.375Q16.417 6 16.188 6H3.812q-.229 0-.374.146-.146.146-.146.375v8.854q0 .229.146.375.145.146.374.146Zm-12.376 0q-.229 0-.374-.146-.146-.146-.146-.375V6.521q0-.229.146-.375Q3.583 6 3.812 6q-.229 0-.374.146-.146.146-.146.375v8.854q0 .229.146.375.145.146.374.146Z"/></svg>

<svg xmlns="http://www.w3.org/2000/svg" height="20" width="20"><path d="M7.042 13.812H12.958V13.542Q12.958 12.771 12.167 12.323Q11.375 11.875 10 11.875Q8.625 11.875 7.833 12.323Q7.042 12.771 7.042 13.542ZM10 10.688Q10.604 10.688 11.01 10.292Q11.417 9.896 11.417 9.292Q11.417 8.688 11.01 8.292Q10.604 7.896 10 7.896Q9.417 7.896 9.021 8.292Q8.625 8.688 8.625 9.292Q8.625 9.896 9.021 10.292Q9.417 10.688 10 10.688ZM3.812 17.354Q2.979 17.354 2.406 16.781Q1.833 16.208 1.833 15.375V6.521Q1.833 5.688 2.406 5.115Q2.979 4.542 3.812 4.542H6.083L7.188 3.333Q7.479 3.042 7.854 2.865Q8.229 2.688 8.646 2.688H11.375Q11.792 2.688 12.156 2.865Q12.521 3.042 12.812 3.333L13.938 4.542H16.188Q17.021 4.542 17.594 5.115Q18.167 5.688 18.167 6.521V15.375Q18.167 16.208 17.594 16.781Q17.021 17.354 16.188 17.354ZM16.188 15.896Q16.417 15.896 16.562 15.75Q16.708 15.604 16.708 15.375V6.521Q16.708 6.292 16.562 6.146Q16.417 6 16.188 6H3.812Q3.583 6 3.438 6.146Q3.292 6.292 3.292 6.521V15.375Q3.292 15.604 3.438 15.75Q3.583 15.896 3.812 15.896ZM3.812 15.896Q3.583 15.896 3.438 15.75Q3.292 15.604 3.292 15.375V6.521Q3.292 6.292 3.438 6.146Q3.583 6 3.812 6Q3.583 6 3.438 6.146Q3.292 6.292 3.292 6.521V15.375Q3.292 15.604 3.438 15.75Q3.583 15.896 3.812 15.896Z"/></svg>
